X:1
T:Cronin's Hornpipe
I:Appris par Carole auprès de Kevin Ryan lors d'un stage au Bono en
I:2010.
R:Hornpipe
M:4/4
K:G
(3DEF |: GF GA BG AB | cB ce d2 (3def | gd Bd ce dc | (3BAG (3AGF DE (3FED |
         GF GA BG AB | cB ce d2 (3def | gd Bd cA FA | G2 GF G2 (3DEF ::
         GB (3def gd Bd | fd e^c d2 (3def | gd Bd ce dc | (3BAG (3AGF DE (3FED
      |1 GB (3def gd Bd | fd e^c d2 (3def | gd Bd cA FA | G2 GF G2 (3DEF
     :|2 GF GA BG AB | cB ce d2 (3def | gd Bd cA FA | G2 GF G2 (3DEF ||